;FLAVOR:Marlin
;TIME:4378
;Filament used: 3.03105m
;Layer height: 0.2
;MINX:116.965
;MINY:120.176
;MINZ:0.2
;MAXX:182.729
;MAXY:180
;MAXZ:15
;Generated with Cura_SteamEngine 4.8.0
M140 S45
M105
M190 S45
M104 S210
M105
M109 S210
M82 ;absolute extrusion mode
M201 X500.00 Y500.00 Z100.00 E5000.00 ;Setup machine max acceleration
M203 X500.00 Y500.00 Z10.00 E50.00 ;Setup machine max feedrate
M204 P500.00 R1000.00 T500.00 ;Setup Print/Retract/Travel acceleration
M205 X8.00 Y8.00 Z0.40 E5.00 ;Setup Jerk
M220 S100 ;Reset Feedrate
M221 S100 ;Reset Flowrate

G28 ;Home

G92 E0 ;Reset Extruder
G1 Z2.0 F3000 ;Move Z Axis up
G1 X10.1 Y20 Z0.28 F5000.0 ;Move to start position
G1 X10.1 Y200.0 Z0.28 F1500.0 E15 ;Draw the first line
G1 X10.4 Y200.0 Z0.28 F5000.0 ;Move to side a little
G1 X10.4 Y20 Z0.28 F1500.0 E30 ;Draw the second line
G92 E0 ;Reset Extruder
G1 Z2.0 F3000 ;Move Z Axis up

G92 E0
G92 E0
G1 F2700 E-5
;LAYER_COUNT:74
;LAYER:0
M107
G1 F300 Z0.4
G0 F7500 X121.424 Y124.373 Z0.4
;TYPE:SKIRT
G1 F300 Z0.2
G1 F2700 E0
G1 F1500 X121.679 Y124.135 E0.0116
G1 X121.911 Y123.926 E0.02199
G1 X122.367 Y123.524 E0.04221
G1 X123.115 Y122.92 E0.07418
G1 X123.366 Y122.735 E0.08455
G1 X124.33 Y122.1 E0.12295
G1 X124.603 Y121.94 E0.13347
G1 X125.432 Y121.501 E0.16467
G1 X125.92 Y121.282 E0.18246
G1 X126.226 Y121.154 E0.19349
G1 X126.787 Y120.937 E0.2135
G1 X127.088 Y120.83 E0.22413
G1 X127.984 Y120.554 E0.25531
G1 X128.769 Y120.379 E0.28206
G1 X128.877 Y120.359 E0.28571
G1 X129.806 Y120.228 E0.31692
G1 X130.742 Y120.176 E0.3481
G1 X131.68 Y120.204 E0.37931
G1 X132.24 Y120.259 E0.39802
G1 X133.131 Y120.37 E0.42789
G1 X137.408 Y120.978 E0.57157
G1 X141.514 Y121.566 E0.70953
G1 X144.111 Y121.902 E0.79663
G1 X146.596 Y122.153 E0.8797
G1 X149.115 Y122.335 E0.9637
G1 X151.598 Y122.444 E1.04636
G1 X154.157 Y122.484 E1.13149
G1 X156.645 Y122.452 E1.21424
G1 X159.164 Y122.349 E1.2981
G1 X161.699 Y122.173 E1.38261
G1 X164.184 Y121.93 E1.46566
G1 X167.48 Y121.499 E1.57622
G1 X168.424 Y121.359 E1.60796
G1 X169.097 Y121.28 E1.6305
G1 X169.514 Y121.244 E1.64442
G1 X170.451 Y121.203 E1.67561
G1 X171.388 Y121.242 E1.70681
G1 X172.159 Y121.335 E1.73263
G1 X173.275 Y121.566 E1.77054
G1 X173.523 Y121.631 E1.77907
G1 X174.042 Y121.781 E1.79704
G1 X174.578 Y121.95 E1.81573
G1 X175.459 Y122.27 E1.8469
G1 X176.311 Y122.664 E1.87812
G1 X177.125 Y123.129 E1.9093
G1 X177.897 Y123.661 E1.94049
G1 X178.621 Y124.258 E1.9717
G1 X179.291 Y124.914 E2.00289
G1 X179.903 Y125.624 E2.03406
G1 X180.453 Y126.385 E2.06529
G1 X180.935 Y127.189 E2.09647
G1 X181.18 Y127.666 E2.11431
G1 X181.355 Y128.038 E2.12798
G1 X181.512 Y128.387 E2.14071
G1 X181.625 Y128.647 E2.15014
G1 X181.874 Y129.241 E2.17156
G1 X182.199 Y130.121 E2.20276
G1 X182.448 Y131.025 E2.23395
G1 X182.62 Y131.947 E2.26514
G1 X182.712 Y132.881 E2.29636
G1 X182.729 Y133.494 E2.31675
G1 X182.726 Y133.862 E2.32899
G1 X182.72 Y134.133 E2.33801
G1 X182.71 Y134.424 E2.34769
G1 X182.683 Y134.98 E2.36621
G1 X182.658 Y135.363 E2.37897
G1 X182.633 Y135.662 E2.38895
G1 X182.588 Y136.095 E2.40343
G1 X182.529 Y136.572 E2.41942
G1 X182.428 Y137.228 E2.44149
G1 X182.336 Y137.724 E2.45827
G1 X182.282 Y137.996 E2.4675
G1 X182.213 Y138.322 E2.47858
G1 X182.065 Y138.933 E2.49949
G1 X181.97 Y139.282 E2.51152
G1 X181.879 Y139.596 E2.52239
G1 X181.802 Y139.849 E2.53119
G1 X181.586 Y140.487 E2.55359
G1 X181.305 Y141.241 E2.58035
G1 X181.152 Y141.631 E2.59429
G1 X181.112 Y141.727 E2.59775
G1 X180.866 Y142.275 E2.61773
G1 X180.607 Y142.812 E2.63756
G1 X180.46 Y143.104 E2.64843
G1 X180.327 Y143.36 E2.65802
G1 X179.995 Y143.955 E2.68069
G1 X179.724 Y144.406 E2.69819
G1 X179.439 Y144.86 E2.71601
G1 X179.056 Y145.424 E2.73869
G1 X178.762 Y145.829 E2.75534
G1 X178.553 Y146.107 E2.7669
G1 X178.446 Y146.245 E2.77271
G1 X178.249 Y146.492 E2.78322
G1 X178.013 Y146.779 E2.79558
G1 X177.736 Y147.102 E2.80973
G1 X177.368 Y147.512 E2.82805
G1 X177.146 Y147.75 E2.83888
G1 X176.725 Y148.177 E2.85882
G1 X176.363 Y148.525 E2.87552
G1 X176.097 Y148.773 E2.88762
G1 X175.878 Y148.97 E2.89742
G1 X175.393 Y149.382 E2.91858
G1 X174.968 Y149.722 E2.93669
G1 X174.705 Y149.925 E2.94774
G1 X174.552 Y150.04 E2.9541
G1 X173.995 Y150.432 E2.97676
G1 X173.391 Y150.83 E3.00081
G1 X173.035 Y151.056 E3.01484
G1 X172.845 Y151.171 E3.02223
G1 X172.378 Y151.438 E3.04012
G1 X172.006 Y151.639 E3.05418
G1 X171.737 Y151.779 E3.06427
G1 X171.353 Y151.973 E3.07858
G1 X171.056 Y152.118 E3.08957
G1 X169.872 Y152.672 E3.13305
G1 X167.522 Y153.813 E3.21993
G1 X165.285 Y154.978 E3.30382
G1 X163.096 Y156.199 E3.38719
G1 X160.94 Y157.483 E3.47065
G1 X158.816 Y158.83 E3.5543
G1 X156.703 Y160.255 E3.63907
G1 X154.67 Y161.712 E3.72226
G1 X152.681 Y163.224 E3.80536
G1 X150.697 Y164.823 E3.89011
G1 X148.819 Y166.425 E3.97221
G1 X146.918 Y168.144 E4.05746
G1 X145.116 Y169.868 E4.1404
G1 X143.334 Y171.672 E4.22474
G1 X141.632 Y173.494 E4.30767
G1 X139.928 Y175.426 E4.39335
G1 X139.38 Y176.073 E4.42155
G1 X139.247 Y176.225 E4.42827
G1 X138.6 Y176.903 E4.45944
G1 X137.663 Y177.71 E4.50057
G1 X136.896 Y178.249 E4.53175
G1 X136.085 Y178.722 E4.56298
G1 X135.238 Y179.123 E4.59415
G1 X134.359 Y179.451 E4.62535
G1 X133.456 Y179.703 E4.65653
G1 X132.534 Y179.877 E4.68774
G1 X131.264 Y179.987 E4.73014
G1 X130.943 Y179.996 E4.74082
G1 X130.635 Y180 E4.75106
G1 X128.53 Y179.999 E4.82108
G1 X127.832 Y179.99 E4.84429
G1 X126.896 Y179.938 E4.87547
G1 X125.967 Y179.806 E4.90668
G1 X125.053 Y179.596 E4.93787
G1 X124.16 Y179.309 E4.96907
G1 X123.295 Y178.946 E5.00027
G1 X122.464 Y178.512 E5.03145
G1 X121.673 Y178.008 E5.06265
G1 X120.928 Y177.438 E5.09385
G1 X120.234 Y176.807 E5.12505
G1 X119.597 Y176.12 E5.15621
G1 X119.02 Y175.38 E5.18742
G1 X118.508 Y174.594 E5.21862
G1 X118.065 Y173.767 E5.24982
G1 X117.694 Y172.906 E5.281
G1 X117.398 Y172.016 E5.3122
G1 X117.179 Y171.104 E5.34339
G1 X117.038 Y170.177 E5.37458
G1 X116.978 Y169.288 E5.40422
G1 X116.969 Y168.955 E5.4153
G1 X116.965 Y168.658 E5.42517
G1 X116.966 Y135.556 E6.52615
G1 X116.972 Y135.097 E6.54142
G1 X116.984 Y134.712 E6.55423
G1 X117.016 Y134.047 E6.57637
G1 X117.164 Y132.701 E6.62141
G1 X117.264 Y132.123 E6.64092
G1 X117.54 Y130.927 E6.68175
G1 X117.59 Y130.755 E6.6877
G1 X117.774 Y130.183 E6.70769
G1 X117.847 Y129.975 E6.71502
G1 X118.224 Y129.041 E6.74852
G1 X118.494 Y128.451 E6.7701
G1 X119.142 Y127.241 E6.81575
G1 X119.301 Y126.984 E6.82581
G1 X119.77 Y126.286 E6.85377
G1 X119.897 Y126.112 E6.86094
G1 X120.248 Y125.657 E6.88005
G1 X120.396 Y125.475 E6.88786
G1 X121.018 Y124.773 E6.91905
G1 X121.424 Y124.373 E6.93801
G0 F7500 X121.697 Y124.666
G1 F1500 X121.952 Y124.428 E6.94961
G1 X122.175 Y124.226 E6.95962
G1 X122.631 Y123.824 E6.97983
G1 X123.352 Y123.242 E7.01065
G1 X123.603 Y123.057 E7.02102
G1 X124.532 Y122.445 E7.05802
G1 X124.805 Y122.285 E7.06855
G1 X125.619 Y121.854 E7.09918
G1 X126.074 Y121.651 E7.11576
G1 X126.38 Y121.523 E7.12679
G1 X126.921 Y121.314 E7.14608
G1 X127.222 Y121.207 E7.1567
G1 X128.102 Y120.937 E7.18732
G1 X128.842 Y120.772 E7.21253
G1 X128.95 Y120.752 E7.21619
G1 X129.862 Y120.624 E7.24682
G1 X130.781 Y120.575 E7.27743
G1 X131.701 Y120.607 E7.30805
G1 X132.19 Y120.656 E7.32439
G1 X133.081 Y120.767 E7.35426
G1 X137.352 Y121.374 E7.49774
G1 X141.499 Y121.968 E7.63707
G1 X144.052 Y122.298 E7.72269
G1 X146.563 Y122.552 E7.80664
G1 X149.067 Y122.733 E7.89014
G1 X151.61 Y122.844 E7.9748
G1 X154.156 Y122.884 E8.05949
G1 X156.666 Y122.852 E8.14298
G1 X159.21 Y122.748 E8.22766
G1 X161.694 Y122.575 E8.31048
G1 X164.21 Y122.329 E8.39456
G1 X167.542 Y121.894 E8.50633
G1 X168.483 Y121.754 E8.53797
G1 X169.131 Y121.678 E8.55967
G1 X169.548 Y121.642 E8.57359
G1 X170.468 Y121.603 E8.60422
G1 X171.388 Y121.644 E8.63485
G1 X172.098 Y121.73 E8.65863
G1 X173.173 Y121.953 E8.69515
G1 X173.421 Y122.018 E8.70368
G1 X173.921 Y122.163 E8.72099
G1 X174.457 Y122.332 E8.73968
G1 X175.323 Y122.646 E8.77032
G1 X176.157 Y123.035 E8.80093
G1 X176.955 Y123.494 E8.83155
G1 X177.71 Y124.022 E8.86219
G1 X178.416 Y124.612 E8.89279
G1 X179.069 Y125.262 E8.92344
G1 X179.662 Y125.965 E8.95403
G1 X180.192 Y126.718 E8.98465
G1 X180.819 Y127.84 E9.0274
G1 X180.99 Y128.202 E9.04072
G1 X181.147 Y128.551 E9.05345
G1 X181.256 Y128.802 E9.06255
G1 X181.505 Y129.396 E9.08397
G1 X181.824 Y130.26 E9.1146
G1 X182.066 Y131.148 E9.14522
G1 X182.231 Y132.054 E9.17585
G1 X182.316 Y132.97 E9.20644
G1 X182.329 Y133.494 E9.22388
G1 X182.326 Y133.854 E9.23585
G1 X182.311 Y134.404 E9.25415
G1 X182.284 Y134.96 E9.27267
G1 X182.259 Y135.329 E9.28497
G1 X182.234 Y135.628 E9.29495
G1 X182.191 Y136.046 E9.30892
G1 X182.132 Y136.523 E9.32491
G1 X182.034 Y137.155 E9.34618
G1 X181.942 Y137.651 E9.36296
G1 X181.89 Y137.913 E9.37184
G1 X181.821 Y138.239 E9.38293
G1 X181.679 Y138.828 E9.40308
G1 X181.584 Y139.177 E9.41511
G1 X181.497 Y139.479 E9.42556
G1 X181.42 Y139.732 E9.43436
G1 X181.212 Y140.348 E9.45598
G1 X180.931 Y141.102 E9.48274
G1 X180.783 Y141.477 E9.49615
G1 X180.743 Y141.573 E9.49961
G1 X180.506 Y142.101 E9.51886
G1 X180.247 Y142.638 E9.53869
G1 X180.105 Y142.92 E9.54919
G1 X179.972 Y143.176 E9.55879
G1 X179.652 Y143.749 E9.58062
G1 X179.381 Y144.2 E9.59812
G1 X179.243 Y144.423 E9.60684
G1 X179.102 Y144.645 E9.61558
G1 X178.732 Y145.189 E9.63747
G1 X178.438 Y145.594 E9.65411
G1 X178.237 Y145.862 E9.66525
G1 X178.13 Y146 E9.67106
G1 X177.94 Y146.237 E9.68117
G1 X177.704 Y146.524 E9.69352
G1 X177.438 Y146.837 E9.70719
G1 X177.245 Y147.054 E9.71685
G1 X176.853 Y147.477 E9.73603
G1 X176.448 Y147.889 E9.75524
G1 X176.086 Y148.237 E9.77194
G1 X175.829 Y148.476 E9.78362
G1 X175.61 Y148.673 E9.79341
G1 X175.143 Y149.069 E9.81378
G1 X174.718 Y149.409 E9.83188
G1 X174.465 Y149.605 E9.84253
G1 X174.312 Y149.72 E9.84889
G1 X173.775 Y150.098 E9.87073
G1 X173.171 Y150.496 E9.89479
G1 X172.828 Y150.713 E9.90829
G1 X172.638 Y150.828 E9.91568
G1 X172.188 Y151.086 E9.93293
G1 X171.816 Y151.287 E9.94699
G1 X171.557 Y151.422 E9.95671
G1 X171.173 Y151.616 E9.97102
G1 X170.886 Y151.756 E9.98164
G1 X169.678 Y152.322 E10.02601
G1 X167.341 Y153.456 E10.1124
G1 X165.084 Y154.631 E10.19704
G1 X162.928 Y155.834 E10.27915
G1 X160.716 Y157.151 E10.36478
G1 X158.583 Y158.503 E10.44877
G1 X156.493 Y159.914 E10.53264
G1 X154.44 Y161.385 E10.61665
G1 X152.43 Y162.914 E10.70064
G1 X150.454 Y164.506 E10.78504
G1 X148.538 Y166.14 E10.86879
G1 X146.657 Y167.841 E10.95314
G1 X144.82 Y169.598 E11.03769
G1 X143.058 Y171.382 E11.12109
G1 X141.323 Y173.239 E11.20562
G1 X139.649 Y175.137 E11.28979
G1 X139.203 Y175.666 E11.3128
G1 X138.946 Y175.961 E11.32582
G1 X138.311 Y176.627 E11.35642
G1 X137.419 Y177.393 E11.39553
G1 X136.666 Y177.922 E11.42613
G1 X135.869 Y178.384 E11.45677
G1 X135.035 Y178.775 E11.48741
G1 X134.171 Y179.092 E11.51802
G1 X133.283 Y179.333 E11.54862
G1 X132.376 Y179.495 E11.57927
G1 X131.253 Y179.587 E11.61674
G1 X130.932 Y179.596 E11.62743
G1 X130.635 Y179.6 E11.6373
G1 X128.535 Y179.599 E11.70715
G1 X127.837 Y179.59 E11.73037
G1 X126.918 Y179.538 E11.76098
G1 X126.007 Y179.407 E11.7916
G1 X125.111 Y179.197 E11.8222
G1 X124.236 Y178.91 E11.85283
G1 X123.389 Y178.548 E11.88347
G1 X122.577 Y178.114 E11.91409
G1 X121.806 Y177.612 E11.94469
G1 X121.081 Y177.044 E11.97532
G1 X120.408 Y176.415 E12.00596
G1 X119.793 Y175.731 E12.03656
G1 X119.239 Y174.996 E12.06717
G1 X118.751 Y174.215 E12.0978
G1 X118.332 Y173.395 E12.12843
G1 X117.986 Y172.542 E12.15904
G1 X117.716 Y171.662 E12.18966
G1 X117.523 Y170.761 E12.22031
G1 X117.409 Y169.848 E12.25091
G1 X117.378 Y169.277 E12.26993
G1 X117.369 Y168.944 E12.28101
G1 X117.365 Y168.658 E12.29052
G1 X117.366 Y135.561 E13.39133
G1 X117.372 Y135.102 E13.4066
G1 X117.383 Y134.732 E13.41891
G1 X117.415 Y134.067 E13.44105
G1 X117.558 Y132.769 E13.48449
G1 X117.658 Y132.191 E13.504
G1 X117.924 Y131.039 E13.54332
G1 X117.974 Y130.867 E13.54928
G1 X118.151 Y130.316 E13.56853
G1 X118.224 Y130.108 E13.57586
G1 X118.587 Y129.207 E13.60817
G1 X118.857 Y128.617 E13.62975
G1 X119.482 Y127.451 E13.67375
G1 X119.641 Y127.194 E13.6838
G1 X120.093 Y126.522 E13.71074
G1 X120.22 Y126.348 E13.7179
G1 X120.558 Y125.909 E13.73633
G1 X120.706 Y125.727 E13.74413
G1 X121.317 Y125.039 E13.77474
G1 X121.697 Y124.666 E13.79245
G0 F7500 X121.97 Y124.958
G1 F1500 X122.225 Y124.72 E13.80405
G1 X122.44 Y124.526 E13.81368
G1 X122.896 Y124.124 E13.8339
G1 X123.589 Y123.564 E13.86353
G1 X123.84 Y123.379 E13.8739
G1 X124.734 Y122.79 E13.90951
G1 X125.007 Y122.63 E13.92003
G1 X125.806 Y122.208 E13.95009
G1 X126.229 Y122.02 E13.96548
G1 X126.535 Y121.892 E13.97652
G1 X127.055 Y121.691 E13.99506
G1 X127.356 Y121.584 E14.00568
G1 X128.219 Y121.32 E14.0357
G1 X128.915 Y121.166 E14.05941
G1 X129.023 Y121.146 E14.06306
G1 X129.917 Y121.021 E14.09309
G1 X130.819 Y120.975 E14.12313
G1 X132.141 Y121.053 E14.16717
G1 X133.032 Y121.164 E14.19704
G1 X137.295 Y121.77 E14.34025
G1 X141.386 Y122.356 E14.47771
G1 X144.032 Y122.698 E14.56644
G1 X146.53 Y122.95 E14.64995
G1 X149.056 Y123.133 E14.73418
G1 X151.585 Y123.244 E14.81838
G1 X154.155 Y123.284 E14.90387
G1 X156.688 Y123.252 E14.98812
G1 X159.218 Y123.148 E15.07234
G1 X161.725 Y122.974 E15.15593
G1 X164.27 Y122.725 E15.24098
G1 X167.588 Y122.292 E15.35227
G1 X168.541 Y122.15 E15.38432
G1 X169.166 Y122.077 E15.40525
G1 X169.583 Y122.041 E15.41917
G1 X170.485 Y122.003 E15.4492
G1 X171.387 Y122.045 E15.47923
G1 X172.037 Y122.126 E15.50101
G1 X173.072 Y122.34 E15.53617
G1 X173.32 Y122.405 E15.54469
G1 X173.801 Y122.544 E15.56135
G1 X174.337 Y122.713 E15.58004
G1 X175.186 Y123.023 E15.6101
G1 X176.003 Y123.406 E15.64011
G1 X176.784 Y123.86 E15.67016
G1 X177.521 Y124.381 E15.70018
G1 X178.21 Y124.966 E15.73024
G1 X178.844 Y125.609 E15.76027
G1 X179.418 Y126.306 E15.79031
G1 X179.929 Y127.05 E15.82033
G1 X180.459 Y128.014 E15.85691
G1 X180.625 Y128.366 E15.86986
G1 X180.782 Y128.715 E15.88259
G1 X180.887 Y128.957 E15.89136
G1 X181.136 Y129.551 E15.91278
G1 X181.448 Y130.398 E15.9428
G1 X181.684 Y131.27 E15.97285
G1 X181.841 Y132.159 E16.00288
G1 X181.929 Y133.494 E16.04738
G1 X181.927 Y133.845 E16.05905
G1 X181.921 Y134.116 E16.06807
G1 X181.911 Y134.385 E16.07702
G1 X181.884 Y134.941 E16.09553
G1 X181.861 Y135.296 E16.10737
G1 X181.836 Y135.595 E16.11734
G1 X181.794 Y135.997 E16.13079
G1 X181.735 Y136.474 E16.14677
G1 X181.641 Y137.082 E16.16724
G1 X181.549 Y137.578 E16.18402
G1 X181.499 Y137.83 E16.19256
G1 X181.43 Y138.156 E16.20364
G1 X181.293 Y138.723 E16.22304
G1 X181.198 Y139.072 E16.23507
G1 X181.114 Y139.363 E16.24515
G1 X181.037 Y139.616 E16.25394
G1 X180.837 Y140.208 E16.27473
G1 X180.556 Y140.962 E16.30149
G1 X180.413 Y141.323 E16.31441
G1 X180.373 Y141.419 E16.31786
G1 X180.145 Y141.927 E16.33638
G1 X179.886 Y142.464 E16.35621
G1 X179.75 Y142.735 E16.3663
G1 X179.617 Y142.991 E16.37589
G1 X179.309 Y143.543 E16.39692
G1 X179.038 Y143.994 E16.41442
G1 X178.905 Y144.209 E16.42283
G1 X178.764 Y144.431 E16.43157
G1 X178.408 Y144.954 E16.45262
G1 X178.114 Y145.359 E16.46926
G1 X177.921 Y145.617 E16.47998
G1 X177.814 Y145.755 E16.48579
G1 X177.631 Y145.983 E16.49551
G1 X177.395 Y146.27 E16.50787
G1 X177.139 Y146.571 E16.52101
G1 X176.946 Y146.788 E16.53067
G1 X176.561 Y147.204 E16.54952
G1 X176.171 Y147.6 E16.56801
G1 X175.809 Y147.948 E16.58471
G1 X175.562 Y148.178 E16.59594
G1 X175.343 Y148.375 E16.60573
G1 X174.893 Y148.757 E16.62537
G1 X174.468 Y149.097 E16.64347
G1 X174.225 Y149.286 E16.65371
G1 X174.072 Y149.401 E16.66007
G1 X173.555 Y149.764 E16.68108
G1 X172.951 Y150.162 E16.70514
G1 X172.621 Y150.371 E16.71813
G1 X172.431 Y150.486 E16.72552
G1 X171.998 Y150.734 E16.74212
G1 X171.626 Y150.935 E16.75618
G1 X171.376 Y151.065 E16.76555
G1 X170.992 Y151.259 E16.77986
G1 X170.717 Y151.393 E16.79004
G1 X169.542 Y151.943 E16.83319
G1 X167.146 Y153.106 E16.92177
G1 X164.926 Y154.262 E17.00502
G1 X162.693 Y155.507 E17.09005
G1 X160.519 Y156.803 E17.17423
G1 X158.376 Y158.161 E17.25861
G1 X156.258 Y159.591 E17.34361
G1 X154.211 Y161.057 E17.42736
G1 X152.182 Y162.6 E17.51214
G1 X150.189 Y164.206 E17.59727
G1 X148.273 Y165.84 E17.68102
G1 X146.377 Y167.555 E17.76605
G1 X144.56 Y169.293 E17.84968
G1 X142.764 Y171.111 E17.93468
